X: 1
T: Lord McDonald
M: 4/4
L: 1/8
R: reel
K: Gmaj
~G3B DGBG|cGBG AGEG|DGBG dG (3Bcd|gedc BGGF|
~G3B dG~G2|cGBG AGEG|BGAF GEDB|DEGA BG~G2||
BddB dBGB|defg aged|BddB dBGB|AB (3cBA BG~G2|
BddB dBGB|defg aged|(3Bcd ef ~g3e|dBAc BG~G2||
dgbg agbg|dgbg ageg|dgbg agbg|dedc BG~G2|
dgbg agbg|dgbg ageg|bgaf gedB|dega bg~g2||
BddB dBGB|defg aged|BddB dBGB|AB (3cBA BG~G2|
BddB dBGB|defg aged|(3Bcd ef ~g3e|dBAc BG~G2||
I can hear Matt Molloy doing some other stuff. Bars 1 &amp; 2 of the A-part are |~G3B DGAG|(3cBA (3BAG AGEG|. Bar 1of the B-part has C#s: |Bdd^c dBGB|.
